nova/resources/svg/fluent/alert.svg

<svg viewBox="0 0 24 24" fill="none" xmlns="http://www.w3.org/2000/svg">
<path d="M12.0001 1.99609C16.05 1.99609 19.3568 5.19084 19.4959 9.24515L19.5001 9.49609V13.5931L20.8801 16.7491C20.9492 16.907 20.9848 17.0775 20.9848 17.2499C20.9848 17.9402 20.4252 18.4999 19.7348 18.4999L15.0001 18.5014C15.0001 20.1582 13.657 21.5014 12.0001 21.5014C10.4024 21.5014 9.09645 20.2524 9.0052 18.6776L8.99966 18.4991L4.27498 18.4999C4.10364 18.4999 3.93413 18.4646 3.77697 18.3964C3.14377 18.1213 2.85342 17.3851 3.12846 16.7519L4.50011 13.594V9.49599C4.50071 5.3412 7.8522 1.99609 12.0001 1.99609ZM13.4997 18.4991L10.5001 18.5014C10.5001 19.3298 11.1717 20.0014 12.0001 20.0014C12.7798 20.0014 13.4206 19.4065 13.4932 18.6458L13.4997 18.4991ZM12.0001 3.49609C8.67995 3.49609 6.00059 6.17035 6.00011 9.49609V13.9057L4.65613 16.9999H19.3526L18.0001 13.9067L18.0002 9.50895L17.9965 9.28375C17.8854 6.05027 15.2417 3.49609 12.0001 3.49609Z" fill="currentColor"/>
</svg>

<svg viewBox="0 0 24 24" fill="none" xmlns="http://www.w3.org/2000/svg"><path d="M12 1.996a7.49 7.49 0 017.496 7.25l.004.25v4.097l1.38 3.156a1.25 1.25 0 01-1.145 1.751L15 18.502a3 3 0 01-5.995.176L9 18.499l-4.725.001a1.25 1.25 0 01-1.147-1.748L4.5 13.594V9.496c0-4.155 3.352-7.5 7.5-7.5zM13.5 18.5l-3 .003a1.5 1.5 0 002.993.144l.006-.147zM12 3.496c-3.32 0-6 2.674-6 6v4.41L4.656 17h14.697L18 13.907V9.509l-.004-.225A5.988 5.988 0 0012 3.496z" fill="currentColor"/></svg>
